svg/building/factory_2_line.svg

<svg xmlns="http://www.w3.org/2000/svg" width="24" height="24" viewBox="0 0 24 24"><g fill="none" fill-rule="evenodd"><path d="M24,0 L24,24 L0,24 L0,0 L24,0 Z M12.5935,23.2578 L12.5819,23.2595 L12.5109,23.295 L12.4919,23.2987 L12.4767,23.295 L12.4057,23.2595 C12.3958,23.2564 12.387,23.259 12.3821,23.2649 L12.378,23.2758 L12.3609,23.7031 L12.3659,23.7235 L12.3769,23.7357 L12.4805,23.8097 L12.4953,23.8136 L12.5071,23.8097 L12.6107,23.7357 L12.6233,23.7197 L12.6267,23.7031 L12.6096,23.2758 C12.6076,23.2657 12.601,23.2593 12.5935,23.2578 Z M12.8584,23.1453 L12.8445,23.1473 L12.6598,23.2397 L12.6499,23.2499 L12.6472,23.2611 L12.6651,23.6906 L12.6699,23.7034 L12.6784,23.7105 L12.8793,23.8032 C12.8914,23.8069 12.9022,23.803 12.9078,23.7952 L12.9118,23.7812 L12.8777,23.1665 C12.8753,23.1546 12.8674,23.147 12.8584,23.1453 Z M12.143,23.1473 C12.1332,23.1424 12.1222,23.1453 12.1156,23.1526 L12.1099,23.1665 L12.0758,23.7812 C12.0751,23.7927 12.0828,23.8019 12.0926,23.8046 L12.1083,23.8032 L12.3092,23.7105 L12.3186,23.7024 L12.3225,23.6906 L12.3404,23.2611 L12.3372,23.2485 L12.3278,23.2397 L12.143,23.1473 Z"/><path fill="#09244B" d="M9.00000073,3 C9.51284077,3 9.93550849,3.38603566 9.99327307,3.8833779 L10.0000007,4 L10.0019578,4.56189119 L10.0019578,4.56189119 L10.0209286,5.74735355 L10.0209286,5.74735355 L10.0662191,7.2251368 L10.0662191,7.2251368 L10.1342685,8.79201101 L10.1342685,8.79201101 L10.1519,9.14269 L13.4855,7.14251 C13.7944,6.95715 14.1792,6.95229 14.4927,7.1298 C14.7713667,7.28758667 14.9554561,7.56777136 14.9929246,7.88111578 L15.0000007,8 L15.0000007,10.1315 L19.4453,7.16795 C19.7522,6.96338 20.1467,6.94431 20.4719,7.11833 C20.7608778,7.27300556 20.9533821,7.55793296 20.9925932,7.87836062 L21.0000007,8 L21.0000007,20 C21.0000007,20.51285 20.6139731,20.9355092 20.1166245,20.9932725 L20.0000007,21 L4.00000073,21 C3.71748,21 3.44813,20.8805 3.25855,20.671 C3.06897,20.4615 2.97685,20.1816 3.00497,19.9005 L3.10104988,18.9235196 L3.10104988,18.9235196 L3.2742507,17.0680437 L3.2742507,17.0680437 L3.45747346,14.9310855 L3.45747346,14.9310855 L3.579575,13.3652791 L3.579575,13.3652791 L3.65802862,12.2736274 L3.65802862,12.2736274 L3.78441108,10.2997653 L3.78441108,10.2997653 L3.87504606,8.60019926 L3.87504606,8.60019926 L3.95055672,6.75050839 L3.95055672,6.75050839 L3.97710274,5.83043976 L3.97710274,5.83043976 L3.99939513,4.3394966 L3.99939513,4.3394966 L4.00000073,4.00397 C4.00000073,3.48745214 4.38604439,3.06451372 4.88338035,3.00672925 L5.00000073,3 L9.00000073,3 Z M13,9.76619 L10.2832,11.3963 L10.3715712,12.6949056 L10.3715712,12.6949056 L10.4766176,14.1031288 L10.4766176,14.1031288 L10.5997984,15.6224192 L10.5997984,15.6224192 L10.7425728,17.2542264 L10.7425728,17.2542264 L10.9064,19 L10.9064,19 L19,19 L19,9.86852 L14.5547,12.8321 C14.2478,13.0366 13.8533,13.0557 13.5281,12.8817 C13.203,12.7077 13,12.3688 13,12 L13,9.76619 Z M8.00663,5 L5.99338,5 L5.9583384,6.539363 L5.9583384,6.539363 L5.89602691,8.19027814 L5.89602691,8.19027814 L5.8087675,9.93069375 L5.8087675,9.93069375 L5.75104541,10.9158933 L5.75104541,10.9158933 L5.65746694,12.3507421 L5.65746694,12.3507421 L5.4772056,14.7671185 L5.4772056,14.7671185 L5.32735662,16.55718 L5.32735662,16.55718 L5.15130464,18.4930164 L5.15130464,18.4930164 L5.10295,19 L8.89705,19 L8.75726217,17.5067445 L8.75726217,17.5067445 L8.63280758,16.0960806 L8.63280758,16.0960806 L8.52279548,14.7671185 L8.52279548,14.7671185 L8.34253576,12.3507421 L8.34253576,12.3507421 L8.24895858,10.9158933 L8.24895858,10.9158933 L8.14320825,9.02245188 L8.14320825,9.02245188 L8.09270587,7.92963716 L8.09270587,7.92963716 L8.03562504,6.33627175 L8.03562504,6.33627175 L8.01396284,5.44150063 L8.01396284,5.44150063 L8.00663,5 Z M13,14 C13.5523,14 14,14.4477 14,15 L14,16 C14,16.5523 13.5523,17 13,17 C12.4477,17 12,16.5523 12,16 L12,15 C12,14.4477 12.4477,14 13,14 Z M17,14 C17.51285,14 17.9355092,14.386027 17.9932725,14.8833761 L18,15 L18,16 C18,16.5523 17.5523,17 17,17 C16.48715,17 16.0644908,16.613973 16.0067275,16.1166239 L16,16 L16,15 C16,14.4477 16.4477,14 17,14 Z"/></g></svg>

<svg xmlns="http://www.w3.org/2000/svg" width="24" height="24"><g fill="none" fill-rule="evenodd"><path d="M24 0v24H0V0zM12.594 23.258l-.012.002-.071.035-.02.004-.014-.004-.071-.036c-.01-.003-.019 0-.024.006l-.004.01-.017.428.005.02.01.013.104.074.015.004.012-.004.104-.074.012-.016.004-.017-.017-.427c-.002-.01-.009-.017-.016-.018m.264-.113-.014.002-.184.093-.01.01-.003.011.018.43.005.012.008.008.201.092c.012.004.023 0 .029-.008l.004-.014-.034-.614c-.003-.012-.01-.02-.02-.022m-.715.002a.023.023 0 0 0-.027.006l-.006.014-.034.614c0 .012.007.02.017.024l.015-.002.201-.093.01-.008.003-.011.018-.43-.003-.012-.01-.01z"/><path fill="#09244B" d="M9 3a1 1 0 0 1 .993.883L10 4l.002.562.019 1.185.045 1.478.068 1.567.018.35 3.334-2a1 1 0 0 1 1.507.74L15 8v2.132l4.445-2.964a1 1 0 0 1 1.548.71L21 8v12a1 1 0 0 1-.883.993L20 21H4a1 1 0 0 1-.995-1.1l.096-.976.173-1.856.183-2.137.123-1.566.078-1.091.126-1.974.091-1.7.076-1.85.026-.92L4 4.34 4 4.003c0-.517.386-.94.883-.997L5 3zm4 6.766-2.717 1.63.089 1.299.105 1.408.123 1.52.143 1.631.163 1.746H19V9.869l-4.445 2.963A1 1 0 0 1 13 12zM8.007 5H5.993l-.035 1.54-.062 1.65-.087 1.74-.058.986-.094 1.435-.18 2.416-.15 1.79-.176 1.936-.048.507h3.794l-.14-1.493-.124-1.41-.11-1.33-.18-2.416-.094-1.435-.106-1.894-.05-1.092-.057-1.594-.022-.894zM13 14a1 1 0 0 1 1 1v1a1 1 0 1 1-2 0v-1a1 1 0 0 1 1-1m4 0a1 1 0 0 1 .993.883L18 15v1a1 1 0 0 1-1.993.117L16 16v-1a1 1 0 0 1 1-1"/></g></svg>
